packages/dnb-eufemia/assets/icons/calculator_medium.svg

<svg width="24" height="24" viewBox="0 0 24 24" fill="none" xmlns="http://www.w3.org/2000/svg">
<path d="M8.25 7.75C8.25 7.33579 7.91421 7 7.5 7C7.08579 7 6.75 7.33579 6.75 7.75H8.25ZM6.75 11.25C6.75 11.6642 7.08579 12 7.5 12C7.91421 12 8.25 11.6642 8.25 11.25H6.75ZM5.75 8.75C5.33579 8.75 5 9.08579 5 9.5C5 9.91421 5.33579 10.25 5.75 10.25V8.75ZM9.25 10.25C9.66421 10.25 10 9.91421 10 9.5C10 9.08579 9.66421 8.75 9.25 8.75V10.25ZM14.75 8.75C14.3358 8.75 14 9.08579 14 9.5C14 9.91421 14.3358 10.25 14.75 10.25V8.75ZM18.25 10.25C18.6642 10.25 19 9.91421 19 9.5C19 9.08579 18.6642 8.75 18.25 8.75V10.25ZM14.75 19C14.3358 19 14 19.3358 14 19.75C14 20.1642 14.3358 20.5 14.75 20.5V19ZM18.25 20.5C18.6642 20.5 19 20.1642 19 19.75C19 19.3358 18.6642 19 18.25 19V20.5ZM14.75 16.5C14.3358 16.5 14 16.8358 14 17.25C14 17.6642 14.3358 18 14.75 18V16.5ZM18.25 18C18.6642 18 19 17.6642 19 17.25C19 16.8358 18.6642 16.5 18.25 16.5V18ZM6.78033 16.7197C6.48744 16.4268 6.01256 16.4268 5.71967 16.7197C5.42678 17.0126 5.42678 17.4874 5.71967 17.7803L6.78033 16.7197ZM8.21967 20.2803C8.51256 20.5732 8.98744 20.5732 9.28033 20.2803C9.57322 19.9874 9.57322 19.5126 9.28033 19.2197L8.21967 20.2803ZM5.71967 19.2197C5.42678 19.5126 5.42678 19.9874 5.71967 20.2803C6.01256 20.5732 6.48744 20.5732 6.78033 20.2803L5.71967 19.2197ZM9.28033 17.7803C9.57322 17.4874 9.57322 17.0126 9.28033 16.7197C8.98744 16.4268 8.51256 16.4268 8.21967 16.7197L9.28033 17.7803ZM14.75 10.25H18.25V8.75H14.75V10.25ZM14.75 20.5H18.25V19H14.75V20.5ZM14.75 18H18.25V16.5H14.75V18ZM5 1.75H19V0.25H5V1.75ZM3.75 5V3H2.25V5H3.75ZM20.25 3V5H21.75V3H20.25ZM3 5.75H12V4.25H3V5.75ZM12 5.75H21V4.25H12V5.75ZM19 22.25H12V23.75H19V22.25ZM12 22.25H5V23.75H12V22.25ZM11.25 5V23H12.75V5H11.25ZM3.75 21V14H2.25V21H3.75ZM3.75 14V5H2.25V14H3.75ZM20.25 5V14H21.75V5H20.25ZM20.25 14V21H21.75V14H20.25ZM3 14.75H21V13.25H3V14.75ZM5 22.25C4.30964 22.25 3.75 21.6904 3.75 21H2.25C2.25 22.5188 3.48122 23.75 5 23.75V22.25ZM19 23.75C20.5188 23.75 21.75 22.5188 21.75 21H20.25C20.25 21.6904 19.6904 22.25 19 22.25V23.75ZM19 1.75C19.6904 1.75 20.25 2.30964 20.25 3H21.75C21.75 1.48122 20.5188 0.25 19 0.25V1.75ZM5 0.25C3.48122 0.25 2.25 1.48122 2.25 3H3.75C3.75 2.30964 4.30964 1.75 5 1.75V0.25ZM5.71967 17.7803L8.21967 20.2803L9.28033 19.2197L6.78033 16.7197L5.71967 17.7803ZM6.78033 20.2803L9.28033 17.7803L8.21967 16.7197L5.71967 19.2197L6.78033 20.2803ZM6.75 7.75V11.25H8.25V7.75H6.75ZM5.75 10.25H9.25V8.75H5.75V10.25Z" fill="black"/>
</svg>

<svg width="24" height="24" viewBox="0 0 24 24" fill="none" xmlns="http://www.w3.org/2000/svg"><path d="M8.25 7.75a.75.75 0 0 0-1.5 0h1.5Zm-1.5 3.5a.75.75 0 0 0 1.5 0h-1.5Zm-1-2.5a.75.75 0 0 0 0 1.5v-1.5Zm3.5 1.5a.75.75 0 0 0 0-1.5v1.5Zm5.5-1.5a.75.75 0 0 0 0 1.5v-1.5Zm3.5 1.5a.75.75 0 0 0 0-1.5v1.5ZM14.75 19a.75.75 0 0 0 0 1.5V19Zm3.5 1.5a.75.75 0 0 0 0-1.5v1.5Zm-3.5-4a.75.75 0 0 0 0 1.5v-1.5Zm3.5 1.5a.75.75 0 0 0 0-1.5V18ZM6.78 16.72a.75.75 0 0 0-1.06 1.06l1.06-1.06Zm1.44 3.56a.75.75 0 0 0 1.06-1.06l-1.06 1.06Zm-2.5-1.06a.75.75 0 1 0 1.06 1.06l-1.06-1.06Zm3.56-1.44a.75.75 0 1 0-1.06-1.06l1.06 1.06Zm5.47-7.53h3.5v-1.5h-3.5v1.5Zm0 10.25h3.5V19h-3.5v1.5Zm0-2.5h3.5v-1.5h-3.5V18ZM5 1.75h14V.25H5v1.5ZM3.75 5V3h-1.5v2h1.5Zm16.5-2v2h1.5V3h-1.5ZM3 5.75h9v-1.5H3v1.5Zm9 0h9v-1.5h-9v1.5Zm7 16.5h-7v1.5h7v-1.5Zm-7 0H5v1.5h7v-1.5ZM11.25 5v18h1.5V5h-1.5Zm-7.5 16v-7h-1.5v7h1.5Zm0-7V5h-1.5v9h1.5Zm16.5-9v9h1.5V5h-1.5Zm0 9v7h1.5v-7h-1.5ZM3 14.75h18v-1.5H3v1.5Zm2 7.5c-.69 0-1.25-.56-1.25-1.25h-1.5A2.75 2.75 0 0 0 5 23.75v-1.5Zm14 1.5A2.75 2.75 0 0 0 21.75 21h-1.5c0 .69-.56 1.25-1.25 1.25v1.5Zm0-22c.69 0 1.25.56 1.25 1.25h1.5A2.75 2.75 0 0 0 19 .25v1.5ZM5 .25A2.75 2.75 0 0 0 2.25 3h1.5c0-.69.56-1.25 1.25-1.25V.25Zm.72 17.53 2.5 2.5 1.06-1.06-2.5-2.5-1.06 1.06Zm1.06 2.5 2.5-2.5-1.06-1.06-2.5 2.5 1.06 1.06ZM6.75 7.75v3.5h1.5v-3.5h-1.5Zm-1 2.5h3.5v-1.5h-3.5v1.5Z" fill="#000"/></svg>
